svg/fluentui-system-icons/ic_fluent_cursor_hover_32_regular.svg

<svg width="32" height="32" viewBox="0 0 32 32" fill="none" xmlns="http://www.w3.org/2000/svg">
<path d="M2 10C2 7.79086 3.79086 6 6 6H26C28.2091 6 30 7.79086 30 10V20C30 21.6124 29.046 23.002 27.6716 23.635C27.5313 23.3603 27.3471 23.1046 27.1213 22.8788L26.2295 21.987C27.226 21.8731 28 21.0269 28 20V10C28 8.89543 27.1046 8 26 8H6C4.89543 8 4 8.89543 4 10V20C4 21.1046 4.89543 22 6 22H14V24H6C3.79086 24 2 22.2091 2 20V10ZM17.7071 16.2929C17.4211 16.0069 16.991 15.9213 16.6173 16.0761C16.2436 16.2309 16 16.5955 16 17V29C16 29.4304 16.2754 29.8126 16.6838 29.9487C17.0921 30.0848 17.5417 29.9443 17.8 29.6L20.5 26H25C25.4045 26 25.7691 25.7564 25.9239 25.3827C26.0787 25.009 25.9931 24.5789 25.7071 24.2929L17.7071 16.2929ZM18 26V19.4142L22.5858 24H20C19.6852 24 19.3889 24.1482 19.2 24.4L18 26Z" fill="#212121"/>
</svg>

<svg xmlns="http://www.w3.org/2000/svg" width="32" height="32"><path d="M2 10a4 4 0 0 1 4-4h20a4 4 0 0 1 4 4v10a4 4 0 0 1-2.328 3.635 2.996 2.996 0 0 0-.55-.756l-.892-.892A2 2 0 0 0 28 20V10a2 2 0 0 0-2-2H6a2 2 0 0 0-2 2v10a2 2 0 0 0 2 2h8v2H6a4 4 0 0 1-4-4V10Zm15.707 6.293A1 1 0 0 0 16 17v12a1 1 0 0 0 1.8.6l2.7-3.6H25a1 1 0 0 0 .707-1.707l-8-8ZM18 26v-6.586L22.586 24H20a1 1 0 0 0-.8.4L18 26Z"/></svg>
